!!!!SEGMENT: Arc2009-Haec_dies.krn
!!!id: Arc2009
!!!AGN: Motet
!!!voices: 4
!!!COM: Jacques Arcadelt
!!!OTL: Haec dies
**kern	**kern	**kern	**kern
*part4	*part3	*part2	*part1
*staff4	*staff3	*staff2	*staff1
*I"Bassus	*I"Tenor	*I"Altus	*I"Superius
*I'B	*I'T	*I'A	*I'S
*clefF4	*clefGv2	*clefGv2	*clefG2
*k[b-]	*k[b-]	*k[b-]	*k[b-]
*F:	*F:	*F:	*F:
*M2/1	*M2/1	*M2/1	*M2/1
*met(C|)	*met(C|)	*met(C|)	*met(C|)
!!section: Prima pars: Haec dies
!!!OMD: Prima pars: Haec dies
=1	=1	=1	=1
0D	1r	0r	0r
.	[1A	.	.
=2	=2	=2	=2
1C	1A]	0r	0r
1C	1G	.	.
=3	=3	=3	=3
0E-X	1G	0r	0r
.	[1B-y	.	.
=4	=4	=4	=4
[0D	1B-]	0r	0r
.	1A	.	.
=5	=5	=5	=5
1D]	1F	0r	0r
1C	2G	.	.
.	2A	.	.
=6	=6	=6	=6
2.BB-y	1B-y	0d	0r
4C	.	.	.
2D	2A	.	.
2BB-y	2B-y	.	.
=7	=7	=7	=7
1C	2A	1c	0r
.	1G	.	.
1AA	.	1c	.
.	2F#i	.	.
=8	=8	=8	=8
0GG	2.G	1.e-X	0r
.	4A	.	.
.	1B-y	.	.
.	.	2d	.
=9	=9	=9	=9
0D	1A	1d	0a
.	2r	1f	.
.	2F	.	.
=10	=10	=10	=10
0r	2.G	2e-i	1g
.	.	2.B-y	.
.	4A	.	.
.	4B-y	.	1g
.	4c	4c	.
.	[2d	4B-y	.
.	.	4A	.
=11	=11	=11	=11
0G	4d]	2G	0b-y
.	4c	.	.
.	4B-y	2.g	.
.	4A	.	.
.	1B-y	.	.
.	.	4f	.
.	.	4d	.
.	.	4e	.
=12	=12	=12	=12
1F	1c	1.f	1a
1D	1d	.	1f
.	.	4e	.
.	.	4d	.
=13	=13	=13	=13
1E	2G	2c	1.g
.	1B-y	1d	.
1E	.	.	.
.	4A	2c#i	2a
.	4G	.	.
=14	=14	=14	=14
1D	2.F	1d	2b-y
.	.	.	2.a
.	4G	.	.
1r	2A	2c	.
.	.	.	4g
.	[2B-y	[2d	4f
.	.	.	4e
=15	=15	=15	=15
1G	2B-]	2d]	2.d
.	2G	2B-y	.
.	.	.	4e
2F	2A	2c	4f
.	.	.	4g
2D	2F	[2d	[2a
=16	=16	=16	=16
2E	1G	4d]	2a]
.	.	8cL	.
.	.	8B-yJ	.
2E	.	2c	1g
1D	1A	1d	.
.	.	.	2f#i
=17	=17	=17	=17
[0GG	0G	1B-y	[0g
.	.	1r	.
=18	=18	=18	=18
1GG]	1.G	1.B-y	1g]
1r	.	.	1r
.	2A	2c	.
=19	=19	=19	=19
0r	2B-y	2d	[0g
.	1c	1e-X	.
.	4B-y	4d	.
.	4A	4c	.
=20	=20	=20	=20
0r	2B-y	2d	0g]
.	2c	2.e-i	.
.	1G	.	.
.	.	4d	.
.	.	[2d	.
=21	=21	=21	=21
0r	2r	4d]	1b-y
.	.	4c	.
.	1G	4B-y	.
.	.	4A	.
.	.	4B-y	1b-y
.	.	4c	.
.	2G	[2d	.
=22	=22	=22	=22
1.D	2F	2d]	0a
.	2D	4c	.
.	.	4B-y	.
.	2F	1A	.
2E	2G	.	.
=23	=23	=23	=23
2F	2A	1r	0r
1G	1B-y	.	.
.	.	[1d	.
4F	4A	.	.
4E	4G	.	.
=24	=24	=24	=24
2F	2A	2d]	2r
2G	1B-y	2d	2d
2D	.	1d	[1a
[2F	2A	.	.
=25	=25	=25	=25
2F]	2F	1c	2a]
2E	1G	.	2g
1D	.	2A	2a
.	2F	[2B-y	[2f
=26	=26	=26	=26
2C	2G	4B-]	2f]
.	.	4A	.
2AA	2A	1A	1e
1BB-y	1D	.	.
.	.	2G	[2d
=27	=27	=27	=27
1AA	1E	2A	2d]
.	.	2A	2c#i
2BB-y	2D	2F	[1d
[2GG	[2B-y	2G	.
=28	=28	=28	=28
4GG]	4B-]	1B-y	1d]
4AA	4A	.	.
2BB-y	1G	.	.
2C	.	1A	2r
2D	2F#i	.	[2d
=29	=29	=29	=29
1GG	1G	1G	2d]
.	.	.	2B-y
1r	1A	2r	2c
.	.	[2c	[2e-i
=30	=30	=30	=30
1r	2F	2c]	2e-]
.	2G	2B-y	1d
2r	1E	2.G	.
[2G	.	.	2c#i
.	.	4A	.
=31	=31	=31	=31
2G]	1D	2B-y	1d
2F	.	1A	.
1G	2r	.	1r
.	[2B-y	[2G	.
=32	=32	=32	=32
2D	2B-]	2G]	2r
2F	1A	2F	1d
1E	.	1G	.
.	2G	.	2c
=33	=33	=33	=33
1D	2B-y	0F	2.d
.	2.A	.	.
.	.	.	4e
2r	.	.	4f
.	4G	.	4g
[2D	4F	.	[2a
.	4E	.	.
=34	=34	=34	=34
2D]	2D	2r	2a]
2BB-y	2B-y	2F	2d
2C	2A	2c	1r
[2E-X	[2G	2B-y	.
=35	=35	=35	=35
2E-]	2G]	2G	1r
1D	2F	2A	.
.	1E	2B-y	2r
2C	.	2c	[2a
=36	=36	=36	=36
1D	2D	1A	2a]
.	1A	.	2f
1GG	.	2B-y	2g
.	[2G	2G	2b-y
=37	=37	=37	=37
1D	2G]	1A	2b-y
.	2F#i	.	1a
2r	1G	1B-y	.
2GG	.	.	2g
=38	=38	=38	=38
1.D	2r	1A	2.a
.	2D	.	.
.	.	.	4g
.	2F	1r	2f
2E	2G	.	2e
=39	=39	=39	=39
2F	2A	1r	1d
2G	1B-y	.	.
1E-X	.	2r	1r
.	4A	2G	.
.	4G	.	.
=40	=40	=40	=40
1D	1F	1.d	2r
.	.	.	2d
1r	1r	.	2f
.	.	2e	2g
=41	=41	=41	=41
1r	0r	2f	2a
.	.	2d	2.b-y
2r	.	2e-X	.
.	.	.	4a
2GG	.	[2d	2g
=42	=42	=42	=42
1.D	2r	2d]	1.f
.	2D	4c	.
.	.	4B-y	.
.	2F	2A	.
2E	2G	[2c	2e
=43	=43	=43	=43
2F	2A	4c]	1d
.	.	4B-y	.
2G	1B-y	1d	.
1E	.	.	2r
.	4A	2c#i	2e
.	4G	.	.
=44	=44	=44	=44
2D	2F	1d	2f
2F	2.A	.	1d
1E	.	1G	.
.	4G	.	.
.	[2G	.	2c
=45	=45	=45	=45
1D	2G]	1A	2d
.	2F#i	.	2a
1GG	2G	2r	2b-y
.	2E	2G	[2g
=46	=46	=46	=46
2r	1D	2B-y	2g]
1D	.	2A	2f
.	2r	2B-y	2.g
2C	2E	2c	.
.	.	.	4f
=47	=47	=47	=47
1D	2F	2B-y	2d
.	2D	2A	2.f
2AA	1E	2r	.
.	.	.	4e
2C	.	[2A	[2e
=48	=48	=48	=48
1D	2F	2A]	4e]
.	.	.	4d
.	2G	2G	1d
1AA	1E	1A	.
.	.	.	2c#i
=49	=49	=49	=49
0D	1D	1F	[0dl
.	1F	1A	.
=50	=50	=50	=50
0GG	2.G	2.B-y	0d_
.	4A	4A	.
.	1B-y	1G	.
=51	=51	=51	=51
00Dl	00Al	00Fl	00d]
==	==	==	==
*-	*-	*-	*-
!!!system-decoration: [*]
!!!RDF**kern: i = editorial accidental
!!!RDF**kern: l = terminal long
!!!ENC: Benjamin Ory
!!!END: 2024/12/7
!!!EED: Benjamin Ory
!!!EEV: 2024/12/07
!!!YEC: Copyright 2024 Benjamin Ory, All Rights Reserved
!!!ONB: Translated from MusicXML on 2024/12/07